X:88
T:K\"ohlen
R:sl-polska
H:Hon hade den efter spelmannen K\"ohlen
A:Sm{\aa}land
B:SvL Sml 47, efter Ida-Sofia Jonsson-Erlandsson, B\"ackebo
Z:id:hn-sp-88
M:3/4
L:1/16
K:Am
(vE2 | [A3A3])B (cB)(cd) e2a2 | a3^f (df)(af) f2ed |
^c2ce (g^f)(ge) c2e2 | (=cB)(A^G) (G2A2) [A2A2](E2 | 
[A3A3])B (cB)(cd) e2a2 | a3^f (df)(af) f2ed | ^c2ce (g^f)(ge) c2e2 |
(=cB)(A^G) (G2A2) [A2A2] :||: x2 | (Ac)(ec) (Ac)(ec) c2B2 |
(E^G)(BG) (EG)(BG) G2A2 | (Ac)(ec) (Ac)(ec) {cd}c2B2 |
(E^G)(BG) (EG)(BG) {GA}G2A2 | [A2A2]([AA]B) (cB)(cd) e2(ed) |
(cB)(cA) (^G2A2) [A2A2] :|

